X:45
T:Cupid's chains - Luxton
%%VWML:SBG-1-2-233-0
F:http://www.vwml.org/record/SBG/1/2/233
Z:Original Sibelius transcriptions by M. & S. Graebe
M:6/8
I:linebreak $
K:C
V:1 treble nm="P1"
V:1
 G | G2 c cd e | d2 c A2 G | A2 c dc B | A3- A2 G | G2 B cd e |$ d2 c A2 G | A2 A cB A | G3 G | %9
 G2 c cd e | d2 c A2 G | A2 c dc B |$ A3- A2 G | G2 c cd e | d2 c A2 c | G2 c BA B | c3 z3 | %17

